X:1
T:Salve Regina - Soriano
T:James Gibb editions
T:#
%%score [ 1 2 3 4 ]
L:1/8
Q:1/4=200
M:none
K:F
V:1 treble nm="Midi_74"
V:2 treble nm="Midi_74"
V:3 treble-8 nm="Midi_74"
V:4 bass nm="Midi_74"
V:1
 x4 x4 x2 ||"^Francesco Soriano\n(1549-1621)""^Salve Regina"[Q:1/4=200] d16 | (c8 B8) | A16 | c16 | %5
w: |Re-|gi\- *|na,|ma-|
 c4 c4 f4 f4 | (d6 e2 f4) c4 | d8 z4 (B4- | B2 c2 d4) c4 B4 | (c2 B2 B8 A4) | B4 d8 c4 | %11
w: ter mi- se- ri-|cor\- * * di-|ae, vi\-|* * * ta, dul-|ce\- * * *|do, et spes|
 B4 A4 (G4 A4- | A2 G2 G8 ^F4) | G4 G4 B4 c4 | (d6 c2 d2 e2 f4) | f4 d6 d2 c4 | B4 A4 B8 | A16 | %18
w: no- stra sal\- *||ve. Ad te cla-|ma\- * * * *|mus e- xu- les|fi- lii E-|vae.|
 z16 | z4 c4 c4 c4- | c4 B4 A8 | A8 z4 A4 | =B8 c4 c4 | ^c8 d8 | d4 d8 =c4 | c4 (c6 B2 A4) | %26
w: |Ad te su\-|* spi- ra-|mus ge-|men- tes et|flen- tes|in hac la-|cry- ma\- * *|
 G4 (A8 B4- | B2 A2 G8 ^F4) | G4 =B8 B4 | c8 d4 f4- | f4 c4 (d4 c2 B2 | A4) d4 c8 | A16 | z8 c8 | %34
w: rum val\- *||le. E- ia|er- go ad\-|* vo- ca\- * *|* ta no-|stra,|no-|
 =B16 | z4 d8 d4 | d8 d4 d4 | e6 f2 d4 c4 | B6 B2 A8- | A4 =B4 c4 (A4- | A2 G2) (G8 ^F4) | G16 || %42
w: stra,|il- los|tu- os mi-|se- ri- cor- des|o- cu- los|* ad nos con\-|* * ver\- *|te.|
 B16 | A8 =B8 | c12 c4 | c16 | c8 c8 | (B8 A8) | (G8 A8) | (B8 c8) | (B8 A8) | G4 B4 A4 =B4 | %52
w: Et|Je- sum|be- ne-|di-|ctum fru-|ctum *|ven\- *|tris *|tu\- *|i, no- bis post|
 c4 c4 d6 d2 | d4 c4 =B8 | =B8 z8 | z4 d4 c8 | =B4[Q:1/4=198] B4[Q:1/4=195] c4[Q:1/4=192] c4 | %57
w: hoc ex- i- li-|um o- sten-|de|O pi-|a, O dul- cis|
[Q:1/4=188] _B8[Q:1/4=184] A4[Q:1/4=181] G4 | %58
w: Vir- go, Ma-|
[Q:1/4=179] (A2[Q:1/4=178] G2[Q:1/4=175] G8[Q:1/4=171] ^F4) |[Q:1/4=170] G16 |] %60
w: ri\- * * *|a.|
V:2
 x4 x4 x2 || B16 | (A8 G8) | ^F16 | G16 | A12 A4 | B8 A4 G4- | G4 ^F4 G8 | z4 (F3 G A4) D2 D2 | %9
w: |Re-|gi\- *|na,|ma-|ter mi-|se- ri- cor\-|* di- ae,|vi\- * * ta, dul-|
 (G8 F8) | F8 F8 | D8 _E6 E2 | D16 | D4 D4 G4 F4 | (B6 A2 G4 A4) | B4 B6 B2 A4 | G4 ^F4 G8 | %17
w: ce\- *|do, et|spes no- stra|sal-|ve. Ad te cla-|ma\- * * *|mus e- xu- les|fi- lii E-|
 D8 F4 E4 | D4 A4 F4 G4 | A4 A4 A8 | G4 G4 E8 | ^F8 z4 F4 | G8 G4 G4 | A8 A4 A4 | A8 (G2 F2 E2 F2 | %25
w: vae, e- xu-|les fi- lii E-|vae. Ad te|su- spi- ra-|mus ge-|men- tes et|flen- tes in|hac la\- * * *|
 G2 E2 A4) G4 (F4- | F2 E2 E2 DE F2 E2 D2 C2 | B,4) C4 D8 | D4 G8 G4 | (G6 A2 B4 A2 G2 | A8 D8) | %31
w: * * * cry- ma\-||* rum val-|le. E- ia|er\- * * * *|* go|
 z4 A8 E4 | (F4 E2 D2 C8) | D8 (E4 ^F4) | G16 | z4 B8 B4 | A8 A4 =B4 | c6 c2 _B4 F4 | G6 G2 C8 | %39
w: ad- vo-|ca\- * * *|ta no\- *|stra,|il- los|tu- os mi-|se- ri- cor- des|o- cu- los|
 F8 G4 F4 | (_E4 C4 D8) | D16 || G16 | ^F8 G8 | A12 A4 | G16 | A8 z4 A4- | A4 G8 (F4- | %48
w: ad nos con-|ver\- * *|te.|Et|Je- sum|be- ne-|di-|ctum fru\-|* ctum ven\-|
 F2 E2 E2 DE F2 E2 D2 C2 | B,4 F4) G4 (A4- | A2 G2 G8 ^F4) | G4 G4 A4 G4 | G4 G4 B6 B2 | B4 G4 G8 | %54
w: |* * tris tu\-||i, no- bis post|hoc ex- i- li-|um o- sten-|
 G6 G2 (E4 ^F4) | G4 G,4 C8 | D4 G4 G4 A4 | F8 F4 D4 | (_E8 D8) | D16 |] %60
w: de. O cle\- *|mens, O pi-|a, O dul- cis|Vir- go, Ma-|ri\- *|a.|
V:3
 d2 c2 d2 G4 || (g8 f8) | (f8 d8) | d16 | e16 | (f6 ed c2 A2 d4- | d4) G4 c4 c4 | B4 A4 G8 | %8
w: Sal\- * * ve|Re\- *|gi\- *|na,|ma-|ter * * * * *|* mi- se- ri-|cor- di- ae,|
 (d6 e2 f8) | _e4 e4 c8 | B8 F8 | G4 A4 B4 (c4- | c2 B2 B2 AG A8) | B8 z8 | G8 B4 c4 | %15
w: vi\- * *|ta, dul- ce-|do, et|spes no- stra sal\-||ve.|Ad te cla-|
 (d2 c2 d2 e2 f6 ef | g4) d4 z4 g4- | g2 g2 f4 d4 e4 | (f6 e2 d2 c2 d4) | e4 f8 f4 | e4 d8 ^c4 | %21
w: ma\- * * * * * *|* mus e\-|* xu- les fi- lii|E\- * * * *|vae. Ad te|su- spi- ra-|
 d8 z4 d4 | d8 e4 e4 | e8 ^f8- | f8 z4 g4 | e4 f4 c4 (c4- | c2 B2 A2 G2 F8) | G8 A8 | G4 d8 d4 | %29
w: mus ge-|men- tes et|flen- tes|* in|hac la- cry- ma\-||rum val-|le. E- ia|
 e8 f8- | f16 | z4 f8 c4 | (d4 c2 B2 A8) | G8 c8 | d16 | z4 g8 g4 | ^f8 f4 g4 | g6 a2 =f4 c4 | %38
w: er- go||ad- vo-|ca\- * * *|ta no-|stra,|il- los|tu- os mi-|se- ri- cor- des|
 d4 e4 (f6 ed | c4 d4 G4 c4 | (c2 B2 A2 G2 A8) | =B16 || d16 | d8 d8 | !courtesy!=f8 f4 f4- | %45
w: o- cu- los * *|* ad nos con-|ver\- * * * *|te.|Et|Je- sum|be- ne- di\-|
 f4 e2 d2 e8 | f4) f8 c4 | d4 e4 f8 | c8 z4 f4- | f4 d4 e4 ^f4 | g8 d8 | z4 d4 d4 d4 | %52
w: |ctum, fru- ctum|ven- tris tu-|i, fru\-|* ctum ven- tris|tu- i,|no- bis post|
 e4 e4 f6 g2 | f4 _e4 d8 | d6 d2 c8 | d6 d2 (e4 ^f4) | g4 d4 e6 =f2 | d8 c4 =B4 | (c6 _B2 A8) | %59
w: hoc ex- i- li-|um o- sten-|de. O cle-|mens, O pi\- *|a, O dul- cis|Vir- go, Ma-|ri\- * *|
 =B16 |] %60
w: a.|
V:4
 x4 x4 x2 || (G,8 B,8) | (F,8 G,8) | D,16 | C,16 | F,12 D,4 | G,4 G,4 F,4 E,4 | D,8 z4 (G,4- | %8
w: |Re\- *|gi\- *|na,|ma-|ter mi-|se- ri- cor- di-|ae, vi\-|
 G,2 A,2 B,4 A,4) B,4 | (_E,8 F,8) | B,,4 B,8 A,4 | G,4 F,4 (_E,4 C,4 | D,16) | G,8 z8 | %14
w: * * * ta, dul-|ce\- *|do, et spes|no- stra sal\- *||ve.|
 z4 G,4 G,4 F,4 | B,8 F,8 | z16 | z4 D6 D2 C4 | B,4 A,4 B,8 | A,4 F,8 F,4 | G,4 G,4 A,8 | %21
w: Ad te cla-|ma- mus||e- xu- les|fi- lii E-|vae. Ad te|su- spi- ra-|
 D,8 z4 D,4 | G,8 C,4 C4 | A,8 D,8- | D,4 D4 =B,4 C4- | C4 F,4 E,4 F,4 | (C,8 D,8) | (_E,8 D,8) | %28
w: mus ge-|men- tes et|flen- tes|* in hac la\-|* cry- ma- rum|val\- *|le. *|
 z4 G,8 G,4 | C8 B,4 D4- | D4 A,4 (B,4 A,2 G,2 | F,2 E,2 D,2 E,2 F,2 G,2 A,4) | D,4 (A,6 B,2 C4- | %33
w: E- ia|er- go ad\-|* vo- ca\- * *||ta no\- * *|
 C4 B,4 A,8 | G,16) | G,12 G,4 | D8 D4 G,4 | C6 A,2 B,4 A,4 | G,6 G,2 F,8- | F,4 D,4 E,4 F,4 | %40
w: |stra,|il- los|tu- os mi-|se- ri- cor- des|o- cu- los|* ad nos con-|
 (C,4 _E,4 D,8) | G,16 || G,16 | D,8 G,8 | F,12 F,4 | C16 | F,16 | z16 | z16 | z16 | z16 | %51
w: ver\- * *|te.|Et|Je- sum|be- ne-|di-|ctum|||||
 z4 G,4 ^F,4 G,4 | C,4 C4 B,6 G,2 | B,4 C4 G,8 | G,4 G,4 A,8 | G,4 B,4 A,8 | G,4 G,4 C4 A,4 | %57
w: no- bis post|hoc ex- i- li-|um o- sten-|de. O cle-|mens, O pi-|a, O dul- cis|
 B,8 F,4 G,4 | (C,8 D,8) | G,16 |] %60
w: Vir- go, Ma-|ri\- *|a.|

